src/assets/img/svg/doodle7.svg

<svg width="56" height="45" viewBox="0 0 56 45" fill="none" xmlns="http://www.w3.org/2000/svg">
<g clip-path="url(#clip0_105_61)">
<path d="M39.8204 9.19306C39.8204 9.19306 39.7756 9.41849 39.6909 9.54811C33.261 22.6226 18.5675 30.9177 3.94115 29.7054C3.15972 29.6377 2.58663 28.9671 2.65312 28.1893C2.7196 27.4116 3.39228 26.8424 4.17371 26.9101C17.6393 28.0378 31.2017 20.3964 37.1408 8.30814C37.4849 7.61496 38.3392 7.31631 39.0363 7.66012C39.6256 7.9532 39.9382 8.60132 39.8204 9.19306V9.19306Z" fill="#3F78E0" stroke="#3F78E0" stroke-width="0.83" stroke-miterlimit="10"/>
<path d="M51.2769 22.6348C51.2488 22.7756 51.2152 22.9447 51.1022 23.0687C46.7904 30.3836 40.5341 36.3741 32.9775 40.3188C32.2874 40.6794 31.4264 40.4201 31.0627 39.7326C30.6991 39.045 30.9579 38.1884 31.648 37.8277C38.6163 34.1761 44.6522 28.4054 48.648 21.6428C49.0487 20.9609 49.9146 20.7524 50.5721 21.1469C51.0992 21.4569 51.3607 22.0656 51.2486 22.6291L51.2769 22.6348Z" fill="#3F78E0" stroke="#3F78E0" stroke-width="0.83" stroke-miterlimit="10"/>
</g>
<defs>
<clipPath id="clip0_105_61">
<rect width="36" height="49" fill="white" transform="translate(0 35.3071) rotate(-78.7423)"/>
</clipPath>
</defs>
</svg>

<svg width="56" height="45" viewBox="0 0 56 45" fill="none" xmlns="http://www.w3.org/2000/svg"><g clip-path="url(#clip0_105_61)" fill="#3F78E0" stroke="#3F78E0" stroke-width=".83" stroke-miterlimit="10"><path d="M39.82 9.193s-.044.225-.13.355c-6.429 13.075-21.122 21.37-35.749 20.157a1.4 1.4 0 01-1.288-1.516 1.396 1.396 0 011.52-1.279c13.466 1.128 27.029-6.514 32.968-18.602a1.426 1.426 0 011.895-.648c.59.293.902.941.784 1.533v0zm11.457 13.442c-.028.14-.062.31-.175.434-4.312 7.315-10.568 13.305-18.124 17.25-.69.36-1.552.101-1.915-.586a1.407 1.407 0 01.585-1.905c6.968-3.652 13.004-9.423 17-16.185.4-.682 1.267-.89 1.924-.496.527.31.789.919.677 1.482l.028.006z"/></g><defs><clipPath id="clip0_105_61"><path fill="#fff" transform="rotate(-78.742 21.514 17.654)" d="M0 0h36v49H0z"/></clipPath></defs></svg>
